style/svgs/types/number_type.svg

<?xml version="1.0" encoding="UTF-8"?>
<svg width="100px" height="100px" viewBox="0 0 100 100" version="1.1" xmlns="http://www.w3.org/2000/svg" xmlns:xlink="http://www.w3.org/1999/xlink">
    <title>Artboard Copy 286</title>
    <g id="Artboard-Copy-286" stroke="none" stroke-width="1" fill="none" fill-rule="evenodd">
        <path d="M56.6157278,100 C59.2548801,100 60.8282209,98.7294661 61.3357501,96.1883984 L66.3180636,71.5453265 L84.4283324,71.5400411 C85.8155791,71.5400411 86.9490612,71.0911191 87.8287786,70.1932752 C88.708496,69.2954312 89.1483547,68.1519507 89.1483547,66.7628337 C89.1483547,65.6447639 88.7930842,64.6876283 88.0825432,63.8914271 C87.3720022,63.0952259 86.4584495,62.6971253 85.3418851,62.6971253 L68.1045666,62.698345 L73.5290396,35.8646694 L91.2799777,35.8634497 C92.6672244,35.8634497 93.8007065,35.4145277 94.6804239,34.5166838 C95.5601413,33.6188398 96,32.4753593 96,31.0862423 C96,29.9681725 95.6447295,29.011037 94.9341885,28.2148357 C94.2236475,27.4186345 93.3100948,27.0205339 92.1935304,27.0205339 L75.3155427,27.024193 L79.4545455,6.53952772 C79.4883807,6.3701232 79.522216,6.1414271 79.5560513,5.85343943 C79.5898866,5.56545175 79.6068042,5.25205339 79.6068042,4.91324435 C79.6068042,3.69353183 79.2007808,2.7363963 78.388734,2.04183778 C77.5766871,1.34727926 76.5785462,1 75.3943112,1 C73.9393939,1 72.8651236,1.36421971 72.1715003,2.09265914 C71.4778769,2.82109856 71.0126418,3.77823409 70.7757948,4.96406571 L66.3115672,27.024193 L42.2814769,27.024193 L46.4143893,6.53952772 C46.4482246,6.3701232 46.4905187,6.1414271 46.5412716,5.85343943 C46.5920245,5.56545175 46.617401,5.25205339 46.617401,4.91324435 C46.617401,3.69353183 46.2113776,2.7363963 45.3993307,2.04183778 C44.5872839,1.34727926 43.5722253,1 42.354155,1 C40.9330731,1 39.8672616,1.36421971 39.1567206,2.09265914 C38.4461796,2.82109856 37.9724856,3.77823409 37.7356386,4.96406571 L33.2839978,27.024193 L16.5716676,27.0205339 C15.1844209,27.0205339 14.0509388,27.4863963 13.1712214,28.4181211 C12.291504,29.349846 11.8516453,30.5272074 11.8516453,31.9502053 C11.8516453,33.1021561 12.2069158,34.0423511 12.9174568,34.7707906 C13.6279978,35.49923 14.5415505,35.8634497 15.6581149,35.8634497 L31.4974947,35.8646694 L26.0860145,62.698345 L9.72002231,62.6971253 C8.33277561,62.6971253 7.19929355,63.1629877 6.31957613,64.0947125 C5.43985871,65.0264374 5,66.2037988 5,67.6267967 C5,68.7787474 5.34681168,69.7189425 6.04043503,70.4473819 C6.73405838,71.1758214 7.6560699,71.5400411 8.8064696,71.5400411 L24.2995114,71.5453265 L19.6675962,94.5112936 C19.5999256,94.7823409 19.5491727,95.0618583 19.5153374,95.349846 C19.4815021,95.6378337 19.4645845,95.9004107 19.4645845,96.137577 C19.4645845,97.3911704 19.8536903,98.348306 20.6319018,99.0089836 C21.4101134,99.6696612 22.4082543,100 23.6263246,100 C26.2654769,100 27.8388176,98.7294661 28.3463469,96.1883984 L33.3099833,71.5453265 L57.3010954,71.5453265 L52.6569994,94.5112936 C52.6231642,94.7823409 52.5893289,95.0618583 52.5554936,95.349846 C52.5216583,95.6378337 52.5047407,95.9004107 52.5047407,96.137577 C52.5047407,97.3911704 52.8938464,98.348306 53.672058,99.0089836 C54.4502696,99.6696612 55.4314928,100 56.6157278,100 Z M59.0940948,62.698345 L35.08999,62.698345 L40.5014702,35.8646694 L64.5250641,35.8646694 L59.0940948,62.698345 Z" id="􀆃" fill="#3E3E3E" fill-rule="nonzero"></path>
    </g>
</svg>

<svg xmlns="http://www.w3.org/2000/svg" width="100" height="100"><path fill="#3E3E3E" fill-rule="nonzero" d="M56.616 100c2.639 0 4.212-1.27 4.72-3.812l4.982-24.643 18.11-.005c1.388 0 2.521-.449 3.4-1.347.88-.898 1.32-2.041 1.32-3.43 0-1.118-.355-2.075-1.065-2.872-.711-.796-1.625-1.194-2.741-1.194l-17.237.001 5.424-26.833 17.751-.002c1.387 0 2.52-.448 3.4-1.346.88-.898 1.32-2.042 1.32-3.43 0-1.119-.355-2.076-1.066-2.872-.71-.796-1.624-1.194-2.74-1.194l-16.878.003L79.455 6.54c.033-.17.067-.399.101-.687.034-.288.05-.6.05-.94 0-1.22-.405-2.177-1.217-2.871C77.577 1.347 76.579 1 75.394 1c-1.455 0-2.529.364-3.222 1.093-.694.728-1.16 1.685-1.396 2.871l-4.464 22.06h-24.03L46.413 6.54c.034-.17.077-.399.127-.687.051-.288.076-.6.076-.94 0-1.22-.406-2.177-1.218-2.871C44.587 1.347 43.572 1 42.354 1c-1.42 0-2.487.364-3.197 1.093-.71.728-1.185 1.685-1.421 2.871l-4.452 22.06-16.712-.003c-1.388 0-2.521.465-3.4 1.397-.88.932-1.32 2.11-1.32 3.532 0 1.152.355 2.092 1.065 2.82.711.73 1.625 1.093 2.741 1.093l15.84.002-5.412 26.833H9.72c-1.387 0-2.52.465-3.4 1.397-.88.931-1.32 2.109-1.32 3.532 0 1.152.347 2.092 1.04 2.82.694.729 1.616 1.093 2.766 1.093l15.494.005-4.632 22.966c-.068.271-.119.55-.153.839-.033.288-.05.55-.05.788 0 1.253.389 2.21 1.167 2.871.778.66 1.776.991 2.994.991 2.64 0 4.213-1.27 4.72-3.812l4.964-24.643h23.991l-4.644 22.966c-.034.271-.068.55-.102.839-.033.288-.05.55-.05.788 0 1.253.389 2.21 1.167 2.871.778.66 1.76.991 2.944.991Zm2.478-37.302H35.09l5.411-26.833h24.024l-5.43 26.833Z"/></svg>
